X:1
T:Title
%%score { ( 1 3 ) | ( 2 4 ) }
L:1/8
M:6/8
K:Ab
V:1 treble nm="Grand Piano"
V:3 treble 
V:2 bass 
V:4 bass 
V:1
 z3 z2[Q:1/4=90] [CE] | [CE]2 [DF] [CE]2 [CA] | A2 G G2 G | G2 B F2 G |[M:5/8] [CE]-[CE]- [CE]3 | %5
[M:1/8] [CE] |[M:3/4] [CE]2 [DF] [CE]2 [CA] | A2 G G2 G | [EB]2 [EG] [=DF]2 [DB] | B6 | c_c =c e3 | %11
 AG A c3 | [FA][EG] F E2 c | [Ac]2 [GB] [GB]3 | c_c =c e3 |[M:7/8] ABc [Fd]3 F | E c2 c3 B | %17
[M:5/8] [CA]-[CA]- [CA]3 |] %18
V:2
 z3 z2 [A,,A,] | [A,,A,]2 [A,,A,] [A,,A,]2 [A,,A,] | [E,CE]2 [E,B,E] [E,B,E]2 [E,B,E] | %3
 [E,B,E]2 [E,G,D] [E,B,D]2 [E,B,D] |[M:5/8] [A,,A,]-[A,,A,]- [A,,A,]3 |[M:1/8] [A,,A,] | %6
[M:3/4] [A,,A,]2 [A,,A,] [A,,A,]2 [A,,A,] | [E,CE]2 [E,B,E] [E,B,E]2 [E,B,E] | %8
 [B,,G,]2 [B,,B,] [B,,B,]2 [B,,A,] | [G,E]4 z2 | [A,EA][A,=DA] [A,EA] [A,CA]3 | %11
 [A,CE][A,B,E] [A,CE] [A,EA]3 | [D,D][D,D] [D,A,D][K:treble] [A,C]2 [A,EA] | [E,E]2 [E,E] [E,E]3 | %14
 [A,EA][A,=DA] [A,EA] [A,CA]3 |[M:7/8] [A,C][A,DG][A,E_G][K:bass] [D,D]3 [D,A,D] | %16
 [E,A,C] [E,A,E]2 [E,A,E]3 [E,G,D] |[M:5/8] [A,,A,]-[A,,A,]- [A,,A,]3 |] %18
V:3
 x6 | x6 | x6 | x6 |[M:5/8] x5 |[M:1/8] x |[M:3/4] x6 | x6 | x6 | z2 z G3 | x6 | x6 | x6 | x6 | %14
 x6 |[M:7/8] x7 | x7 |[M:5/8] x5 |] %18
V:4
 x6 | x6 | x6 | x6 |[M:5/8] x5 |[M:1/8] x |[M:3/4] x6 | x6 | x6 | E,3- [E,D]3 | x6 | x6 | %12
 x3[K:treble] x3 | x6 | x6 |[M:7/8] x3[K:bass] x4 | x7 |[M:5/8] x5 |] %18

